X:1
T:Only Remembered
T:Only Remembered
T:Ira David Sankey, 1891
T:Horatius Bonar, 1870
T:Public Domain Courtesy of the Cyber Hymnal™
T:Public Domain Courtesy of the Cyber Hymnal™
C:Ira David Sankey, 1891
Z:Public Domain
Z:Courtesy of the Cyber Hymnal™
%%score ( 1 2 ) ( 3 4 )
L:1/8
Q:1/4=100
M:4/4
K:Eb
V:1 treble 
V:2 treble 
V:3 bass 
V:4 bass 
V:1
 [EB]2 [E=A]>[EB] [Ge]2 [GB][EG] | [DB]2 [FA]>[DF] [FA] [EG]3 | [Ec]2 [Ad]>[Ad] [Ge]2 [GB][Gc] | %3
w: 1.~Fad- ing a- way like the|stars of the morn- ing,|Los- ing their light in the|
w: 2.~Shall we be missed though by|o- thers suc- ceed- ed,|Reap- ing the fields we in|
w: 3.~On- ly the truth that in|life we have spok- en,|On- ly the seed that on|
 [Fd]2 [Ec]>[Ec] [DB]4 | [EB]2 [E=A]>[EB] [Ge]2 [GB][EG] | [EB]2 [DA]>[DF] [FA] [EG]3 | %6
w: glor- i- ous sun?|Thus would we pass from the|earth and its toil- ing,|
w: spring- time have sown?|No, for the sow- ers may|pass from their la- bors,|
w: earth we have sown;|These shall pass on- ward when|we are for- got- ten,|
 [Ec]2 [Ad]>[Ad] [Ge]2 [GB][FA] | [EG]2 [DF]>E E4 ||"^Refrain" [DF]2 [DF]>[EG] [FA] [FA]2 z | %9
w: On- ly re- mem- bered by|what we have done.||
w: On- ly re- mem- bered by|what they have done.|On- ly re- mem- bered,|
w: Fruits of the har- vest and|what we have done.||
 [EG]2 [EG]>[FA] [GB] [GB]2 z | [FB]2 [E=A]>[DB] (cd)[Fe][Fe] | [Fd]2 [Ec]>[Ec] [DB]4 | %12
w: |||
w: on- ly re- mem- bered,|On- ly re- mem- * bered by|what we have done;|
w: |||
 [EB]2 [E=A]>[EB] [Ge]2 [GB][EG] | [DB]2 [FA]>[DF] [FA] [EG]3 | [Ec]2 [Ad]>[Ad] [Ge]2 [GB][FA] | %15
w: |||
w: Thus would we pass from the|earth and its toil- ing,|On- ly re- mem- bered by|
w: |||
 [EG]2 [DF]>E E4 |] %16
w: |
w: what we have done.|
w: |
V:2
 x8 | x8 | x8 | x8 | x8 | x8 | x8 | x7/2 E/ E4 || x8 | x8 | x4 F2 x2 | x8 | x8 | x8 | x8 | %15
 x7/2 E/ E4 |] %16
V:3
 [E,G,]2 [F,^G,]>[E,G,] [E,B,]2 [E,B,][E,B,] | [B,,B,]2 [B,,B,]>[B,,B,] [E,B,] [E,B,]3 | %2
 A,2 [F,B,]>[F,B,] [E,B,]2 [E,E][E,B,] | [F,B,]2 [F,=A,]>[F,A,] (B,2 _A,2) | %4
 [E,G,]2 [E,^F,]>[E,G,] [E,B,]2 [E,E][E,B,] | [B,,G,]2 [B,,F,]>[B,,B,] [E,B,] [E,B,]3 | %6
 A,2 [F,B,]>[F,B,] [E,B,]2 [E,E][A,C] | B,2 [B,,A,]>[E,G,] [E,G,]4 || %8
 [B,,B,]2 [B,,B,]>[B,,B,] [B,,B,] [B,,B,]2 z | [E,B,]2 [E,B,]>[E,B,] [E,E] [E,E]2 z | %10
 [F,D]2 [F,C]>[F,B,] (=A,B,)[F,C][A,C] | B,2 [F,=A,]>[F,A,] B,2 _A,2 | %12
 [E,G,]2 [E,^F,]>[E,G,] [E,B,]2 [E,E][E,B,] | [B,,B,]2 [B,,B,]>[B,,B,] [E,B,] [E,B,]3 | %14
 A,2 [F,B,]>[F,B,] (B,E)[E,D][A,C] | B,2 [B,,A,]>[E,G,] [E,G,]4 |] %16
V:4
 x8 | x8 | A,2 x6 | x4 B,,4 | x8 | x8 | A,2 x6 | B,2 x6 || x8 | x8 | x4 F,2 x2 | B,2 B,,4 x2 | x8 | %13
 x8 | A,2 E,2 x4 | B,2 x6 |] %16

